X: 34556
T: Rip The Calico
R: reel
M: 4/4
K: Gmajor
G4 G2BG|AGED AdBA|G4 G2BG|1 AGEG D3A:|2 AGGE D3E||
GE~E2 c2Bd|AGEG AdBA|GE~E2 c2Bd|1 AGGE D3E:|2 AGGE D4||
d3B c3B|AGEG A3c|BddB c2Bd|AGGE D4|
d3B c3B|AGEG A3c|Bddd edge|dcBc A2BA||

